X:6740
T:Hanter dro
C:Trad 4, 2
M:3/4
L:1/16
K:C
d2de f2~e2 f2fe|(3ddd de ff~e2 f2fe|(3ddd de ff~e2 f4:|
|:e2fg a2ag ffef|a2ag fgfd e4|eefg a2ag ffef|a2ag f2~e2 d4:|
